X:1
T:Title
%%score ( 1 2 ) { 3 | 4 }
L:1/8
Q:1/4=100
M:4/4
K:G
V:1 treble nm="Bright Piano"
V:2 treble 
V:3 bass nm="Bright Piano"
V:4 bass 
V:1
 [DG]2 [DG]2 [DA]2 [DF]2 | [DG]2 [DA]2 [DB]4 | z4 z2 .A2 | [DF]2 [^CE]2 D4 | %4
w: R.~Menthal * * *||||
 [Dd]2 [Dd]2 [Dc]2 [GB]2 | [Gc]2 [=FGd]2 [EGe]4 | [Fd]2 [Fc]2 [GB]2 G-[GB] | [Gd]2 [GB]2 [FA]4 | %8
w: ||||
 [GB]2 [GB]2 [FA]2 [FA]2 | [Fc]2 [Fc]2 [GB]4 | [EG]2 [FA]2 [GB]2 cB |[M:8/4] [GB]2 [FA]2 G4 z8 | %12
w: ||||
[M:4/4] [EG]8 | [DG]8 |] %14
w: ||
V:2
 x8 | x8 | [DF]2 [DG]2 [DA]2 E-[EG] | x8 | x8 | x8 | z4 z2 .A2 | x8 | x8 | x8 | z4 z2 G2 | %11
[M:8/4] x16 |[M:4/4] x8 | x8 |] %14
V:3
 B,2 B,2 C2 A,2 | G,2 F,2 G,4 | A,2 A,2 A,2 B,2 | A,2 G,2 F,4 | F,2 F,2 A,2 B,[K:treble]D | %5
 C2 B,2 C4 | A,2 D2 D2 CD | D2 D2 D4 | D2 D2 C2 C2 | A,2 A,2 G,4 | B,2 D2[K:treble] D2 E2 | %11
[M:8/4] D2 C2 B,4 z8 |[M:4/4] C8 | B,8 |] %14
V:4
 G,2 G,2 D,2 C,2 | B,,2 A,,2 G,,4 | D,2 E,2 F,2 G,2 | z2 A,,2 D,4 | D,2 D,2 F,2 G,=F, | %5
 E,2 D,2 C,4 | D,2 D,2 G,2 G,2 | B,2 G,2 D,4 | G,2 G,2 D,2 D,2 | D,2 D,2 E,4 | E,2 D,2 G,2 C,2 | %11
[M:8/4] D,2 D,2 [G,,G,]4 z8 |[M:4/4] C,8 | [G,,G,]8 |] %14

